X: 3
T: Jim Donoghue's
R: reel
M: 4/4
L: 1/8
K: Dmaj
A3F BFAF|BFAF EDBD|A3F BFAF|EDEF DEFB|
A3F BFAF|BFAF ABde| f3e dBAF|1 EDEF DEFG:|2 EDEF D2ze||
f3e f3e|dfed BAFA|Beed e2 de|fedf edBA|
f3e fgfe|dcdA BAFB|ABde fdAF|1 EDEF D2ze|2 EDEF DEFG|]


Tune 2536	Setting 28173

